svg/material-icons/sports_esports/materialicons/20px.svg

<svg xmlns="http://www.w3.org/2000/svg" width="20" height="20" viewBox="0 0 20 20"><path d="m15.82 13.55-.62-5.76A2.01 2.01 0 0 0 13.21 6H6.79c-1.02 0-1.87.77-1.98 1.78l-.62 5.76c-.1.78.5 1.46 1.27 1.46.34 0 .67-.14.91-.38L8 13h4l1.62 1.62c.24.24.57.38.91.38.78 0 1.38-.68 1.29-1.45zm-6.57-3.8H8V11h-.5V9.75H6.25v-.5H7.5V8H8v1.25h1.25v.5zM11.5 9c-.28 0-.5-.22-.5-.5s.22-.5.5-.5.5.22.5.5-.22.5-.5.5zm1 2c-.28 0-.5-.22-.5-.5s.22-.5.5-.5.5.22.5.5-.22.5-.5.5z"/></svg>

<svg xmlns="http://www.w3.org/2000/svg" enable-background="new 0 0 20 20" height="20" viewBox="0 0 20 20" width="20"><g><rect fill="none" height="20" width="20"/></g><g><g><path d="M15.82,13.55l-0.62-5.76C15.08,6.77,14.23,6,13.21,6H6.79C5.77,6,4.92,6.77,4.81,7.78l-0.62,5.76 C4.09,14.32,4.69,15,5.46,15c0.34,0,0.67-0.14,0.91-0.38L8,13h4l1.62,1.62c0.24,0.24,0.57,0.38,0.91,0.38 C15.31,15,15.91,14.32,15.82,13.55z M9.25,9.75H8V11H7.5V9.75H6.25v-0.5H7.5V8H8v1.25h1.25V9.75z M11.5,9C11.22,9,11,8.78,11,8.5 C11,8.22,11.22,8,11.5,8S12,8.22,12,8.5C12,8.78,11.78,9,11.5,9z M12.5,11c-0.28,0-0.5-0.22-0.5-0.5c0-0.28,0.22-0.5,0.5-0.5 s0.5,0.22,0.5,0.5C13,10.78,12.78,11,12.5,11z"/></g></g></svg>
